public/about/comic-bubbles/comic-bubble3.svg

<svg width="192" height="138" viewBox="0 0 192 138" fill="none" xmlns="http://www.w3.org/2000/svg">
<g clip-path="url(#clip0_6_5)">
<path fill-rule="evenodd" clip-rule="evenodd" d="M16.4145 11.4173C32.6632 26.3094 52.228 55.7957 0.497437 54.6043C22.2176 61.2231 54.5161 84.5871 9.94821 125.094C29.6788 114.669 62.4746 102.06 35.8135 135.022C53.5544 121.453 92.2197 100.472 104.953 125.094C103.627 115 112.713 103.45 159.668 138C147.067 121.785 135.793 91.0403 191.503 97.7914C170.445 88.1942 139.175 60.164 182.549 24.8201C162.819 33.9209 130.321 44.6763 158.176 14.8921C143.42 26.1439 116.891 38.918 128.829 0C117.389 15.3885 88.141 38.6201 62.6736 8.43885C68.8084 22.1726 68.1451 41.9957 16.4145 11.4173ZM14.4249 57.5827C47.8508 56.3914 40.9534 35.2446 33.3265 24.8201C63.9669 39.5137 68.9741 26.3094 67.6477 17.8705C87.1509 37.3343 108.949 26.1009 119.876 15.9414C120.988 14.9075 121.987 13.8847 122.86 12.9065C120.075 34.7482 135.627 31.9353 143.751 27.7986C137.384 43.6835 155.026 40.0431 164.643 36.2374C143.154 63.6389 163.648 85.7122 176.58 93.3237C142.359 92.9266 143.42 113.676 148.228 124.101C147.029 123.226 145.859 122.4 144.719 121.619C143.536 120.81 142.385 120.049 141.264 119.335C115.455 102.906 105.639 111.284 103.959 118.144C90.0311 100.273 62.0104 112.021 49.741 120.13C54.1182 103.053 35.3161 108.712 25.3679 113.676C48.4477 84.6863 27.6891 64.2015 14.4249 57.5827Z" fill="black"/>
<path d="M33.3264 24.8201C40.9534 35.2446 47.8508 56.3914 14.4249 57.5827C33.1606 60.3956 64.2653 58.7741 38.7979 29.7842C51.2332 37.8921 74.6114 47.7539 68.6425 22.3381C78.7565 32.6348 103.163 45.7708 119.876 15.9414C108.949 26.1009 87.1509 37.3343 67.6477 17.8705C68.9741 26.3093 63.9668 39.5137 33.3264 24.8201Z" fill="#C3C3C3"/>
<path d="M148.228 124.101C143.42 113.676 142.359 92.9266 176.58 93.3237C159.484 90.0144 129.178 91.0403 144.719 121.619C145.859 122.4 147.029 123.226 148.228 124.101Z" fill="#C3C3C3"/>
<path d="M103.959 118.144C105.639 111.284 115.455 102.906 141.264 119.335C115.001 90.5038 105.451 106.528 103.959 118.144Z" fill="#C3C3C3"/>
<path d="M14.4249 57.5827C27.6891 64.2015 48.4477 84.6863 25.3679 113.676C35.3161 108.712 54.1181 103.053 49.7409 120.129C62.0103 112.021 90.0311 100.273 103.959 118.144C105.451 106.528 115.001 90.5038 141.264 119.335C142.385 120.049 143.536 120.81 144.719 121.619C129.178 91.0403 159.484 90.0144 176.58 93.3237C163.648 85.7122 143.154 63.6389 164.642 36.2374C155.026 40.0431 137.384 43.6835 143.751 27.7986C135.627 31.9353 120.075 34.7482 122.86 12.9065C121.987 13.8847 120.988 14.9075 119.876 15.9414C103.163 45.7708 78.7565 32.6348 68.6425 22.3381C74.6114 47.754 51.2332 37.8921 38.7979 29.7842C64.2653 58.7741 33.1606 60.3957 14.4249 57.5827Z" fill="#F7F7F7"/>
<path d="M80.7588 51.1026C80.9736 50.3008 81.482 50.0073 82.2837 50.2222L83.8873 50.6518C84.6891 50.8667 84.9826 51.375 84.7678 52.1768C84.5529 52.9786 84.0446 53.2721 83.2428 53.0572L82.0401 52.735L81.3956 55.1403L82.5983 55.4626C83.4001 55.6774 83.6936 56.1858 83.4787 56.9875C83.2639 57.7893 82.7556 58.0828 81.9538 57.868L80.3502 57.4383C79.5484 57.2235 79.2549 56.7151 79.4698 55.9133L79.5772 55.5125L77.1718 54.8679L77.0644 55.2688C76.4199 57.6742 77.3003 59.1992 79.7057 59.8437L81.3093 60.2734C83.7146 60.9179 85.2396 60.0375 85.8841 57.6321C86.1276 56.7234 86.1393 55.8671 85.9193 55.0634C86.5117 54.4774 86.9297 53.73 87.1731 52.8213C87.8177 50.4159 86.9372 48.891 84.5319 48.2465L82.9283 47.8168C80.5229 47.1723 78.9979 48.0527 78.3534 50.4581L78.246 50.859L80.6514 51.5035L80.7588 51.1026ZM88.5801 49.9757C89.2649 51.1618 89.3567 52.6902 88.8554 54.5611C88.5718 55.6195 88.1966 56.3783 87.7298 56.8376C87.9044 57.4687 87.8499 58.3135 87.5663 59.3719C86.7786 62.3118 84.9148 63.3879 81.9748 62.6001L80.3713 62.1704C78.5004 61.6691 77.2226 60.8254 76.5378 59.6394C75.853 58.4533 75.7613 56.9248 76.2626 55.054L76.5848 53.8513L80.5938 54.9255L80.9161 53.7228L78.1098 52.9709L77.2294 51.4459L77.5516 50.2432C78.3394 47.3033 80.2032 46.2272 83.1431 47.015L84.7467 47.4447C86.6175 47.946 87.8954 48.7896 88.5801 49.9757ZM90.9308 62.8514L92.5344 63.2811C94.9397 63.9256 96.4647 63.0452 97.1092 60.6398L97.3241 59.838C97.9686 57.4327 97.0881 55.9077 94.6828 55.2632L93.0792 54.8335C92.8119 54.7619 92.4017 54.6892 91.8486 54.6155L92.3062 52.9077L98.7205 54.6264L99.365 52.221L90.5453 49.8578L88.6117 57.0739L91.0171 57.7184C91.1604 57.1839 91.6329 57.024 92.4347 57.2389L94.0382 57.6686C94.84 57.8834 95.1335 58.3917 94.9187 59.1935L94.7038 59.9953C94.489 60.7971 93.9807 61.0906 93.1789 60.8757L91.5753 60.4461C90.7735 60.2312 90.4442 59.8565 90.5874 59.322L88.1821 58.6775C87.6092 60.8156 88.5254 62.2069 90.9308 62.8514ZM93.902 59.7805L93.1002 59.5656C92.9132 59.5155 92.7544 59.6162 92.624 59.8677L93.3937 60.0739C93.661 60.1456 93.8304 60.0477 93.902 59.7805ZM101.262 53.159L100.188 57.168L97.975 56.575C99.1638 58.0394 99.5076 59.707 99.0063 61.5778L98.7914 62.3796C98.0037 65.3195 96.1399 66.3956 93.2 65.6079L91.5964 65.1782C89.8057 64.6984 88.5502 63.8463 87.8298 62.6221C87.1133 61.4046 87.0351 59.7509 87.5951 57.6609L89.9584 48.8411L100.382 51.634L101.262 53.159ZM106.982 54.262L105.378 53.8323C102.973 53.1878 101.448 54.0682 100.804 56.4736L99.5146 61.2843C98.8701 63.6897 99.7505 65.2147 102.156 65.8592L103.759 66.2889C106.165 66.9334 107.69 66.053 108.334 63.6476L109.623 58.8368C110.268 56.4314 109.387 54.9065 106.982 54.262ZM107.218 58.1923L105.929 63.0031C105.714 63.8049 105.206 64.0983 104.404 63.8835L102.8 63.4538C101.999 63.239 101.705 62.7307 101.92 61.9289L103.209 57.1181C103.424 56.3163 103.932 56.0228 104.734 56.2377L106.338 56.6674C107.139 56.8822 107.433 57.3905 107.218 58.1923ZM103.817 62.8669L104.619 63.0817C104.886 63.1533 105.056 63.0555 105.127 62.7882L106.201 58.7793C105.4 58.5644 104.891 58.8579 104.676 59.6597L103.817 62.8669ZM98.988 65.6549C98.3033 64.4688 98.2115 62.9404 98.7128 61.0695L100.002 56.2587C100.79 53.3188 102.653 52.2428 105.593 53.0305L107.197 53.4602C109.068 53.9615 110.346 54.8052 111.03 55.9912C111.715 57.1773 111.807 58.7058 111.306 60.5766L110.017 65.3874C109.229 68.3273 107.365 69.4034 104.425 68.6156L102.821 68.1859C100.951 67.6847 99.6728 66.841 98.988 65.6549ZM116.517 61.9731L117.162 59.5677L114.756 58.9232L114.112 61.3286L111.706 60.684L111.062 63.0894L113.467 63.7339L112.823 66.1393L115.228 66.7838L115.873 64.3785L118.278 65.023L118.923 62.6176L116.517 61.9731ZM110.045 63.6764L111.12 59.6674L113.525 60.3119L114.169 57.9065L118.178 58.9807L119.059 60.5057L118.737 61.7084L119.939 62.0306L120.82 63.5556L119.746 67.5646L117.34 66.92L116.696 69.3254L112.687 68.2512L111.806 66.7263L112.128 65.5236L110.926 65.2013L110.045 63.6764ZM57.3771 69.4101L61.386 70.4843L60.097 75.2951L62.5024 75.9396L65.725 63.9127L63.3196 63.2682L62.0306 68.0789L58.0216 67.0047L59.3106 62.194L56.9052 61.5494L53.6826 73.5764L56.088 74.2209L57.3771 69.4101ZM59.0804 75.882L60.0471 72.274L58.8444 71.9517L57.5554 76.7625L53.5464 75.6883L52.666 74.1633L56.3183 60.5328L60.3273 61.607L61.2077 63.132L60.2409 66.74L61.4436 67.0623L62.7326 62.2515L66.7416 63.3257L67.622 64.8507L63.9698 78.4812L59.9608 77.407L59.0804 75.882ZM72.0885 76.7895L72.0918 78.5091L74.5774 79.1751L74.5768 66.2845L71.3055 65.408L64.8596 76.5712L67.3452 77.2372L68.2079 75.7497L72.0885 76.7895ZM72.0916 74.2122L69.4938 73.5161L72.0904 69.0214L72.0916 74.2122ZM71.2676 79.1476L71.2708 78.7188L69.4828 78.2397L68.6202 79.7273L64.4829 78.6187L63.6025 77.0937L70.9109 64.4429L75.401 65.646L76.2814 67.171L76.2853 81.7811L72.1481 80.6725L71.2676 79.1476ZM88.0102 73.7511C88.6547 71.3457 87.7743 69.8208 85.3689 69.1763L83.7653 68.7466C81.36 68.1021 79.835 68.9825 79.1905 71.3879L77.9014 76.1986C77.2569 78.604 78.1374 80.129 80.5427 80.7735L82.1463 81.2032C84.5517 81.8477 86.0767 80.9673 86.7212 78.5619L86.8286 78.161L84.4232 77.5165L84.3158 77.9174C84.101 78.7192 83.5926 79.0126 82.7908 78.7978L81.1873 78.3681C80.3855 78.1533 80.092 77.645 80.3068 76.8432L81.5959 72.0324C81.8107 71.2306 82.319 70.9371 83.1208 71.152L84.7244 71.5817C85.5262 71.7965 85.8197 72.3048 85.6048 73.1066L85.4974 73.5075L87.9028 74.152L88.0102 73.7511ZM77.3749 80.5692C76.6901 79.3831 76.5984 77.8547 77.0997 75.9838L78.3887 71.173C79.1764 68.2331 81.0403 67.157 83.9802 67.9448L85.5838 68.3745C87.4546 68.8758 88.7324 69.7195 89.4172 70.9055C90.102 72.0916 90.1937 73.6201 89.6924 75.4909L89.3702 76.6936L85.3612 75.6194L84.4808 74.0945L84.5882 73.6936L83.7864 73.4787C83.5191 73.4071 83.3497 73.5049 83.2781 73.7722L82.2039 77.7812L83.0057 77.996C83.273 78.0676 83.4424 77.9698 83.514 77.7025L83.8363 76.4998L87.8452 77.574L88.7257 79.099L88.4034 80.3017C87.6157 83.2416 85.7518 84.3177 82.8119 83.5299L81.2083 83.1002C79.3375 82.5989 78.0597 81.7553 77.3749 80.5692ZM95.5667 72.8111L96.849 71.393L101.355 72.6004L102.235 74.1253L96.9135 80.0039L98.5832 87.7558L94.0771 86.5484L93.1967 85.0235L92.7952 83.1542L92.0325 86.0006L88.0236 84.9264L87.1431 83.4014L90.7954 69.7709L94.8044 70.8451L95.6848 72.3701L95.5667 72.8111ZM91.8542 78.6482L92.7282 78.8824L93.9086 84.3549L96.6027 85.0767L95.1351 78.2383L99.8253 73.0498L97.1312 72.328L93.3727 76.477L92.4987 76.2429L93.7878 71.4321L91.3824 70.7876L88.1598 82.8145L90.5652 83.459L91.8542 78.6482ZM101.633 83.8465L102.278 81.4412L107.088 82.7302L107.733 80.3248L102.922 79.0358L103.567 76.6304L109.179 78.1343L109.824 75.7289L101.806 73.5805L98.5831 85.6074L106.601 87.7558L107.246 85.3504L101.633 83.8465ZM108.642 80.1388L109.63 81.2628L108.556 85.2718L109.143 86.2884L108.068 90.2974L98.4469 87.7193L97.5665 86.1944L101.219 72.5639L110.84 75.1419L111.721 76.6669L110.647 80.6759L108.642 80.1388ZM112.229 76.3734L109.006 88.4003L111.412 89.0448L112.701 84.2341L113.823 84.5349L115.317 90.0911L118.091 90.8345L116.583 85.2055C118.42 85.1478 119.586 84.1942 120.082 82.3447C120.726 79.9393 119.846 78.4144 117.441 77.7699L112.229 76.3734ZM113.99 79.4233L116.796 80.1753C117.598 80.3901 117.891 80.8984 117.677 81.7002C117.462 82.502 116.953 82.7955 116.152 82.5806L113.345 81.8287L113.99 79.4233ZM121.489 79.4991C122.174 80.6852 122.265 82.2137 121.764 84.0845C121.163 86.3295 120.087 87.4793 118.537 87.5337L120.151 93.535L115.517 92.2932L114.637 90.7683L113.867 87.8982L112.879 91.5864L108.87 90.5122L107.99 88.9873L111.642 75.3568L117.656 76.9681C119.526 77.4694 120.804 78.3131 121.489 79.4991ZM128.666 80.7776L127.062 80.348C124.657 79.7034 123.132 80.5839 122.487 82.9892C121.843 85.3946 122.723 86.9196 125.129 87.5641L126.732 87.9938C127.534 88.2086 127.828 88.7169 127.613 89.5187C127.398 90.3205 126.89 90.614 126.088 90.3992L124.484 89.9695C123.682 89.7546 123.353 89.38 123.496 88.8454L121.091 88.2009C120.518 90.339 121.434 91.7303 123.84 92.3749L125.443 92.8045C127.849 93.4491 129.374 92.5686 130.018 90.1632C130.663 87.7579 129.782 86.2329 127.377 85.5884L125.773 85.1587C124.971 84.9439 124.678 84.4356 124.893 83.6338C125.108 82.832 125.616 82.5385 126.418 82.7533L128.021 83.183C128.823 83.3979 129.152 83.7725 129.009 84.3071L131.415 84.9516C131.987 82.8135 131.071 81.4222 128.666 80.7776ZM122.449 87.0781C121.439 86.0798 121.184 84.6453 121.686 82.7744C122.473 79.8345 124.337 78.7584 127.277 79.5462L128.881 79.9758C130.671 80.4556 131.924 81.307 132.639 82.5298C133.361 83.7487 133.442 85.4032 132.882 87.4932L130.669 86.9002C131.466 87.6868 131.891 88.5168 131.944 89.3902C131.996 90.2636 131.915 91.1012 131.7 91.903C130.913 94.8429 129.049 95.919 126.109 95.1313L124.505 94.7016C122.715 94.2218 121.459 93.3698 120.739 92.1455C120.022 90.928 119.944 89.2743 120.504 87.1843L122.717 87.7772C122.604 87.5579 122.514 87.3248 122.449 87.0781Z" fill="black"/>
</g>
<defs>
<clipPath id="clip0_6_5">
<rect width="192" height="138" fill="white"/>
</clipPath>
</defs>
</svg>

<svg xmlns="http://www.w3.org/2000/svg" width="192" height="138" fill="none"><g clip-path="url(#a)"><path fill="#000" fill-rule="evenodd" d="M16.415 11.417C32.663 26.31 52.228 55.796.497 54.604c21.72 6.62 54.02 29.983 9.451 70.49 19.73-10.425 52.527-23.034 25.865 9.928 17.741-13.569 56.407-34.55 69.14-9.928-1.326-10.094 7.76-21.644 54.715 12.906-12.601-16.215-23.875-46.96 31.835-40.209-21.058-9.597-52.328-37.627-8.954-72.97-19.73 9.1-52.228 19.855-24.373-9.929C143.42 26.144 116.891 38.918 128.829 0c-11.44 15.389-40.688 38.62-66.155 8.439 6.134 13.734 5.471 33.557-46.26 2.978Zm-1.99 46.166C47.85 56.39 40.953 35.245 33.326 24.82c30.64 14.694 35.648 1.49 34.322-6.95 19.503 19.464 41.301 8.23 52.228-1.929a45.927 45.927 0 0 0 2.984-3.035c-2.785 21.842 12.767 19.03 20.891 14.893-6.367 15.885 11.275 12.244 20.892 8.438-21.489 27.402-.995 49.475 11.937 57.087-34.221-.397-33.16 20.352-28.352 30.777a144.267 144.267 0 0 0-3.509-2.482 126.864 126.864 0 0 0-3.455-2.284c-25.809-16.429-35.625-8.051-37.305-1.191-13.928-17.871-41.949-6.123-54.218 1.986 4.377-17.077-14.425-11.418-24.373-6.454 23.08-28.99 2.321-49.475-10.943-56.093Z" clip-rule="evenodd"/><path fill="#C3C3C3" d="M33.326 24.82c7.627 10.425 14.525 31.571-18.901 32.763 18.736 2.813 49.84 1.191 24.373-27.799 12.435 8.108 35.813 17.97 29.844-7.446 10.115 10.297 34.521 23.433 51.234-6.397-10.927 10.16-32.725 21.393-52.228 1.93 1.326 8.438-3.681 21.643-34.322 6.95ZM148.228 124.101c-4.808-10.425-5.869-31.174 28.352-30.777-17.096-3.31-47.402-2.284-31.861 28.295 1.14.781 2.31 1.607 3.509 2.482ZM103.959 118.144c1.68-6.86 11.496-15.238 37.305 1.191-26.263-28.831-35.813-12.807-37.305-1.191Z"/><path fill="#F7F7F7" d="M14.425 57.583c13.264 6.618 34.023 27.103 10.943 56.093 9.948-4.964 28.75-10.623 24.373 6.453 12.27-8.108 40.29-19.856 54.218-1.985 1.492-11.616 11.042-27.64 37.305 1.191 1.121.714 2.272 1.475 3.455 2.284-15.541-30.579 14.765-31.605 31.861-28.295-12.932-7.612-33.426-29.685-11.938-57.087-9.616 3.806-27.258 7.447-20.891-8.438-8.124 4.136-23.676 6.95-20.891-14.893a45.927 45.927 0 0 1-2.984 3.035c-16.713 29.83-41.12 16.694-51.234 6.397 5.97 25.416-17.409 15.554-29.844 7.446 25.467 28.99-5.637 30.612-24.373 27.799Z"/><path fill="#000" d="M80.759 51.103c.215-.802.723-1.096 1.525-.88l1.603.429c.802.215 1.096.723.88 1.525-.214.802-.722 1.095-1.524.88l-1.203-.322-.644 2.405 1.202.323c.802.214 1.096.723.88 1.524-.214.802-.722 1.096-1.524.881l-1.604-.43c-.802-.215-1.095-.723-.88-1.525l.107-.4-2.405-.645-.108.4c-.644 2.406.236 3.931 2.642 4.576l1.603.43c2.406.644 3.93-.236 4.575-2.642.244-.909.255-1.765.035-2.569.593-.586 1.01-1.333 1.254-2.242.645-2.405-.236-3.93-2.641-4.575l-1.604-.43c-2.405-.644-3.93.237-4.575 2.642l-.107.401 2.405.645.108-.401Zm7.821-1.127c.685 1.186.777 2.714.275 4.585-.283 1.059-.658 1.817-1.125 2.277.174.63.12 1.475-.164 2.534-.787 2.94-2.651 4.016-5.591 3.228l-1.604-.43c-1.87-.5-3.148-1.345-3.833-2.53-.685-1.187-.777-2.715-.275-4.586l.322-1.203 4.009 1.075.322-1.203-2.806-.752-.88-1.525.322-1.203c.787-2.94 2.651-4.016 5.591-3.228l1.604.43c1.87.501 3.148 1.345 3.833 2.53Zm2.35 12.875 1.604.43c2.406.645 3.93-.236 4.575-2.641l.215-.802c.645-2.405-.236-3.93-2.641-4.575l-1.604-.43a10.593 10.593 0 0 0-1.23-.218l.457-1.707 6.415 1.718.644-2.405-8.82-2.363-1.933 7.216 2.405.644c.143-.534.616-.694 1.418-.48l1.603.43c.802.215 1.096.724.88 1.526l-.214.801c-.215.802-.723 1.096-1.525.88l-1.604-.429c-.802-.215-1.13-.59-.988-1.124l-2.405-.645c-.573 2.139.343 3.53 2.749 4.174Zm2.972-3.07-.802-.215c-.187-.05-.346.05-.476.302l.77.206c.267.072.436-.026.508-.293Zm7.36-6.622-1.074 4.009-2.213-.593c1.189 1.464 1.533 3.132 1.031 5.003l-.215.802c-.787 2.94-2.651 4.016-5.591 3.228l-1.604-.43c-1.79-.48-3.046-1.332-3.766-2.556-.717-1.217-.795-2.871-.235-4.961l2.363-8.82 10.424 2.793.88 1.525Zm5.72 1.103-1.604-.43c-2.405-.644-3.93.236-4.574 2.642l-1.29 4.81c-.644 2.406.237 3.93 2.642 4.575l1.603.43c2.406.644 3.931-.236 4.575-2.641l1.289-4.811c.645-2.406-.236-3.93-2.641-4.575Zm.236 3.93-1.289 4.811c-.215.802-.723 1.095-1.525.88l-1.604-.43c-.801-.214-1.095-.722-.88-1.524l1.289-4.81c.215-.803.723-1.096 1.525-.881l1.604.43c.801.214 1.095.723.88 1.524Zm-3.401 4.675.802.215c.267.071.437-.026.508-.294l1.074-4.009c-.801-.215-1.31.079-1.525.88l-.859 3.208Zm-4.829 2.788c-.685-1.186-.776-2.715-.275-4.586l1.289-4.81c.788-2.94 2.651-4.016 5.591-3.228l1.604.43c1.871.5 3.149 1.344 3.833 2.53.685 1.186.777 2.715.276 4.586l-1.289 4.81c-.788 2.94-2.652 4.016-5.592 3.229l-1.604-.43c-1.87-.501-3.148-1.345-3.833-2.531Zm17.529-3.682.645-2.405-2.406-.645-.644 2.406-2.406-.645-.644 2.405 2.405.645-.644 2.405 2.405.645.645-2.406 2.405.645.645-2.405-2.406-.645Zm-6.472 1.703 1.075-4.009 2.405.645.644-2.405 4.009 1.074.881 1.525-.322 1.202 1.202.323.881 1.525-1.074 4.009-2.406-.645-.644 2.405-4.009-1.074-.881-1.525.322-1.202-1.202-.323-.881-1.525ZM57.377 69.41l4.009 1.074-1.289 4.811 2.405.645 3.223-12.027-2.405-.645-1.29 4.81-4.008-1.073 1.289-4.811-2.406-.645-3.222 12.027 2.405.645 1.29-4.81Zm1.703 6.472.967-3.608-1.203-.322-1.289 4.81-4.009-1.074-.88-1.525 3.652-13.63 4.01 1.074.88 1.525-.967 3.608 1.203.322 1.289-4.81 4.009 1.074.88 1.525-3.652 13.63-4.01-1.074-.88-1.525Zm13.008.907.004 1.72 2.485.666v-12.89l-3.272-.877-6.445 11.163 2.485.666.863-1.487 3.88 1.04Zm.004-2.577-2.598-.696 2.596-4.495.002 5.191Zm-.824 4.936.003-.43-1.788-.478-.863 1.487-4.137-1.108-.88-1.525 7.308-12.651 4.49 1.203.88 1.525.004 14.61-4.137-1.109-.88-1.524ZM88.01 73.75c.645-2.405-.236-3.93-2.641-4.575l-1.604-.43c-2.405-.644-3.93.237-4.575 2.642l-1.289 4.81c-.644 2.406.236 3.931 2.642 4.576l1.603.43c2.406.644 3.93-.237 4.575-2.642l.108-.401-2.406-.645-.107.401c-.215.802-.723 1.096-1.525.88l-1.604-.429c-.802-.215-1.095-.723-.88-1.525l1.289-4.81c.215-.802.723-1.096 1.525-.881l1.603.43c.802.215 1.096.723.88 1.525l-.107.4 2.406.645.107-.4ZM77.375 80.57c-.685-1.186-.777-2.714-.275-4.585l1.289-4.811c.787-2.94 2.651-4.016 5.591-3.228l1.604.43c1.87.5 3.148 1.344 3.833 2.53.685 1.187.777 2.715.275 4.586l-.322 1.203-4.009-1.075-.88-1.525.107-.4-.802-.215c-.267-.072-.436.026-.508.293l-1.074 4.01.802.214c.267.072.436-.026.508-.293l.322-1.203 4.01 1.074.88 1.525-.323 1.203c-.787 2.94-2.651 4.016-5.591 3.228l-1.604-.43c-1.87-.501-3.148-1.345-3.833-2.53Zm18.192-7.758 1.282-1.418 4.506 1.207.88 1.525-5.322 5.879 1.67 7.752-4.506-1.208-.88-1.525-.402-1.869-.763 2.847-4.008-1.075-.88-1.525 3.651-13.63 4.01 1.074.88 1.525-.118.441Zm-3.713 5.837.874.234 1.18 5.473 2.695.722-1.468-6.839 4.69-5.188-2.694-.722-3.758 4.149-.874-.234 1.289-4.81-2.406-.645-3.222 12.026 2.405.645 1.29-4.81Zm9.779 5.199.645-2.406 4.81 1.29.645-2.406-4.811-1.29.645-2.405 5.612 1.504.645-2.405-8.018-2.148-3.223 12.026 8.018 2.149.645-2.406-5.613-1.503Zm7.009-3.708.988 1.124-1.074 4.009.587 1.016-1.075 4.01-9.621-2.579-.88-1.525 3.652-13.63 9.621 2.578.881 1.525-1.074 4.009-2.005-.537Zm3.587-3.766L109.006 88.4l2.406.645 1.289-4.81 1.122.3 1.494 5.556 2.774.744-1.508-5.63c1.837-.057 3.003-1.01 3.499-2.86.644-2.406-.236-3.93-2.641-4.575l-5.212-1.397Zm1.761 3.05 2.806.752c.802.215 1.095.723.881 1.525-.215.802-.724 1.096-1.525.88l-2.807-.751.645-2.406Zm7.499.076c.685 1.186.776 2.715.275 4.586-.601 2.245-1.677 3.394-3.227 3.449l1.614 6.001-4.634-1.242-.88-1.525-.77-2.87-.988 3.688-4.009-1.074-.88-1.525 3.652-13.63 6.014 1.611c1.87.501 3.148 1.345 3.833 2.531Zm7.177 1.279-1.604-.43c-2.405-.645-3.93.236-4.575 2.641-.644 2.406.236 3.93 2.642 4.575l1.603.43c.802.215 1.096.723.881 1.525-.215.801-.723 1.095-1.525.88l-1.604-.43c-.802-.214-1.131-.589-.988-1.124l-2.405-.644c-.573 2.138.343 3.53 2.749 4.174l1.603.43c2.406.644 3.931-.236 4.575-2.642.645-2.405-.236-3.93-2.641-4.575l-1.604-.43c-.802-.214-1.095-.722-.88-1.524.215-.802.723-1.096 1.525-.88l1.603.429c.802.215 1.131.59.988 1.124l2.406.645c.572-2.138-.344-3.53-2.749-4.174Zm-6.217 6.3c-1.01-.998-1.265-2.433-.763-4.304.787-2.94 2.651-4.016 5.591-3.228l1.604.43c1.79.48 3.043 1.331 3.758 2.554.722 1.219.803 2.873.243 4.963l-2.213-.593c.797.787 1.222 1.617 1.275 2.49a7.841 7.841 0 0 1-.244 2.513c-.787 2.94-2.651 4.016-5.591 3.228l-1.604-.43c-1.79-.48-3.046-1.331-3.766-2.555-.717-1.218-.795-2.872-.235-4.962l2.213.593a3.43 3.43 0 0 1-.268-.699Z"/></g><defs><clipPath id="a"><path fill="#fff" d="M0 0h192v138H0z"/></clipPath></defs></svg>
